X:1
T:"Just Makin' It Up"
T:Improvised by Tom Brier Transcribed by mlololoer https://musescore.com/user/31487787/scores/5634143 Transcribed from: https://www.youtube.com/watch?v=plRfbG9DzVc 
T:"Just Makin' It Up" 
C:Tom Brier
C:Transcribed by mlololoer
%%score { ( 1 3 6 ) | ( 2 4 5 ) }
L:1/8
Q:1/4=130
M:3/4
K:G
V:1 treble nm="Piano" snm="Pno."
V:3 treble 
V:6 treble 
V:2 bass 
V:4 bass 
V:5 bass 
V:1
!mp!"^Moderato" B2- B^A B^c | [GBd]3 B Gd | [DFc]3 A EF | [B,DG]2 B,C ^CD- | [D=FG]4 [GBd=fg]2 || %5
[K:C]!mf!"^Swing 8ths." !arpeggio!.[cegc']2 z [cea]2 e | [Gcg]2 [Ge] [Gd]2 c | %7
 [^Fe] [Fcd]2 [FA]2 e | [^Fcd]2 z ^c [Fd]e | [F_Af] [FAd]2 [FAc]2 A | [FG]2 [FGBd]3 f | %11
 [Gce] [Gc]2 z/ (3F/4G/4^G/4 [FA]c | [EG]3 ^F G/c/e/g/ | .[cc'] z z2 [G_Bce]2 | %14
 [_Be_b]3 (3g/b/g/ ec | [cf]e fg (3a_b=b | [cc']2 z2 c (3^c/d/^d/ | [Gce]g ec G2 | [Gce]a ec ^F2 | %19
 [FBe]g ed [FA]B | [EGc]3 B (3cde ||[K:F] [Af]3 c df | [Ace]3 A ce | [Ad]3 c A^F | D6 | %25
 [GBe]3 d (3BD^D | Ed [Bc]3 E | [CG] F2 ^C [B,D]F | C4 c (5:4:5c/4^c/4d/4^d/4e/4 | f3 A cf | %30
 [ce]3 A ce | !arpeggio![FBd]3 F Bd | [EA^c]3 E Ac | [FBd]2 !arpeggio![F=Bf]2 ed | %34
 (3[Fc]dc [D^FA]2 [DFB]D | [=B,DA] [B,DG]3 [_B,D]E | [CF]3 E (3FAc | [FB_d]4 [GBdg] (3z/ f/g/ | %38
 [FB_df]3 [Fd] cB | [FA]f [FA]2 [GB]2 | [Ac]3 F Ac | [FB_d]4 [GBdg] (3z/ f/g/ | %42
 [FGB_df]3 _e [FBd]2 |!<(! [FAc]2 [FAcd]2!<)! [F_Acdf]2 | %44
!f! [EGBce]2 [Begc']2 z (5:4:5c/4^c/4d/4^d/4e/4 |!mf! f3 A cf | [Ace]3 A ce | [FBd]^c d2 fe | %48
 [F_A_cd]4 [FAce]d | [FAc]d (3[FA]B=B [FAc]A | [EBc]B [B,D]2 [B,E]2 | [A,F]2 !>!B,2 G,B, | %52
 A,4 F2 || (3[_df]FB (3[dg]GB (3[df]AB | (3[_db]Bd (3[da]Ad (3[dg]Gd | [cfa]2 [cfac']3 f | %56
 [ca]3 A ca |{/a} [Bg]2 [eb]3 [Be] | [cg]3 [Bc] eg | [Bg] (3z/ a/g/ [Af]2 [Bd]2 | [Ac]3 F Ac | %61
 [FB_d]3 F (3[Bdg]G[Bdg] | (3[B_da]A[Bda] (3[Bdg]G[Bdg] [FBdf]d | [FAc]2!>(! [FAcf]2!>)! [Acfa]2 | %64
 !arpeggio![c^fc']4 [cfa]c' | (3[db]c'b B3 (5:4:5B/4=B/4c/4^c/4d/4 | ea/ (3g/4e/4c/4 B3 f | %67
 [Af]3 (3z/ c/^c/ [_Ad]f | [Ac]3 F Ac | [FB_df]3 f [FB_e]2 | [FB_d][Bd] _e [Fce]2 [FBd] | %71
 (3[Ac]dc [FA]2 [FB]=B | [FAc]2 z C Fd | [EBc]3 (3c/B/G/ (3D^DE | %74
!<(! (3AGE (3C[B,C]B, (3G,^G,!<)!A, | B,=B, (3C^CD (3^DEF | (3^FG^G (3AB=B c/^c/d/_d/- | %77
!mf! .[df] z z (3z/ (_d/f/ _d') (3z/ (B/d/ | B) (3z/ (F/B/ F) (3z/ (_D/F/ B,) (3_d/f/b/ | %79
 c'2 z d' [fa]^g | [^fa]3 d fa | [da]c' [db]2 g2 | [Bf]e [Bd]2 [Be]2 |!>(! [Acf]2 df B!>)!d | %84
 [Ac]6 ||!mp! [B,DF]2!<(! [DFB]2!<)! [FBd]2 | [F_Ad]3 ^c [FAd]f | %87
!>(! [DFBd]2 [CFAc]2!>)! [B,DFB]2 | [CFA]3 ^G [^D^FA]c | [DB]2 G2 D^D | [B,E]2 [B,EA]3 [B,E] | %91
 [A,CF]2 [CFA]2 [DFBd]2 | [CFAc]2 [_EAcf]2 z F | [Bf]2 [Bd]3 f | [GBe]2 [EBc]3 B | %95
 [CFA]2 [FAc]2 [FBd]2 | [FAc]2 [CFA]2 [C^FB]D | [FA]2 G^C D^D | E [B,A]2 C [B,G][A,CF]- | %99
 [A,CF] D2 B, DF- | F4 z [B_d]- ||[K:Ab]!mf! [Bd]F [ce]F [Bd]F | [df]G [Bde] [GBd]2 [Ac]- | %103
 [Ac]E A [Bd]2 [=B=d] | [ce]3 [Ac]2 e | [Bd]G B [GBde]2 d | [GB]3 D (3GBd | [ce]3 [Bd] [Ac][ce]- | %108
 [ce]3 [ce]- [ce]_F | [Ad_f]_G [Ad_g]2 [Adfa][GBdg]- | [GBdg]2 [_FBd_f]2 [DFBd]2 | %111
 [_G_ce]3 [d_f] [e_g][Ac]- | [Ac]3 d [A_ce]2 | [Be]G B [GBe]2 B | (3[A=d]e=e fB [da][G_d_eg]- | %115
!<(! (3[Gdeg]Gd [Aea]2 [=Ad=a][Bdgb]- | [Bdgb] [dgbe']2 [DGBe]2!<)! A/4=A/4B/4=B/4 |!mf! c3 A2 c | %118
 [F=Ad]c [FAf]2 [Ac]2 | [FBe]2 [FBd] [FBe]2 [FBdf]- | [FBdf]F B [Adfa]2 [^F^f] | %121
 [GBdg] [Bb]2 [EGde]2 [=E=e] | [FBdf] [Aa]2 [GBdg]2 [Ee] | [FAcf] [Ee]2 c [Fd]B | %124
 [Ec]A [__Ec]A [DB]_E- | [EA] [EAce]2 [Acea]2 [_G_g] | [Ff] [E=Ace]2 [CEFAc]2 F | %127
 [DFB]2 [FBdf]E- [E=Ace][FBdf]- | [FBdf]F B [G=B=dg]2 [Ff] | %129
 [EAce] [FAcf]2 [CEAc]- (3[CEAc][Dd][=D=d] | [EGBe]d F [DGc]2 B | [CEA] [CE_GA]2 A [DF]_F | %132
 [CEA]4 [Acea]2 |!mp! [d_f]A df [Bb]f | [Ada]2 [_FAd_f]2 [DFAd][EAce]- | %135
 [EAce]C- [CEAc]2 [Ee][=E=e] | [F=Acf]2 [EAce]3 F |"^rall."[Q:1/4=125] [DB]2 [DFBd]2 [FBf]2 | %138
[Q:1/4=120] [GBde]2 [GBde]c- [ceg]2 |[Q:1/4=110]{/A-} [Acea]2 [ceac']2 [ce_c']2 | %140
[Q:1/4=90] !arpeggio![^g=b=e']2 !arpeggio![be'^g']2 !arpeggio![be'g'=b']2 | %141
 !arpeggio!!>![c'e'a'c'']6[Q:1/4=140] | (3cea!8va(! (3c'e'a'!8va)!!8va(! (3c''e''a'' | %143
 !>!!fermata!c'''6!8va)! |] %144
V:2
!ped! ^G,,2 [^G,B,E]2 [G,B,E]2!ped-up! |!ped! [G,,G,]2 [G,B,D]2 [G,B,D]D,,-!ped-up! | %2
!ped! [D,,D,]2 [D,A,C]2 [D,A,C]2!ped-up! | %3
!ped! [G,,D,G,]2 [G,,D,G,][A,,^D,A,] [^A,,E,^A,][B,,=F,B,]-!ped-up! | %4
!ped! [B,,F,B,]2 [G,,,G,,]2 [G,B,D=F]2!ped-up! ||[K:C] !arpeggio!.[C,,G,,E,]2 .[G,CE]2 .[G,CE]2 | %6
!8vb(!!ped! G,,,2!8vb)! [G,CE]2 [C,,C,]D,,-!ped-up! | %7
!ped! [D,,A,,^F,]2 [F,A,CD]2 [F,A,CD]2!ped-up! | %8
!8vb(!!ped! D,,,2!8vb)! [^F,A,CD]2 [F,A,CD]F,,-!ped-up! | %9
!ped! [F,,C,_A,]2 [F,A,CD]2 [F,A,CD]G,,-!ped-up! | %10
!ped! [G,,D,F,]2 [G,,,G,,]2 [D,F,G,B,]C,,-!ped-up! | %11
!ped! [C,,G,,E,]2 [E,G,C]2!ped-up!!ped! [F,,C,A,]2!ped-up! | %12
!ped! [E,,C,G,]2 [G,CE]2 [G,CE]C,,-!ped-up! | .[C,,G,,E,]2 .[G,_B,CE]2 .[G,B,CE]C,,- | %14
!ped! [C,,G,,E,]2 [G,_B,CE]2 [G,B,CE]F,,-!ped-up! |!ped! [F,,C,A,]2 [A,CF]2 [A,CF]2!ped-up! | %16
!ped! [F,_A,C]2 [_A,,A,]3 G,,-!ped-up! |!ped! [G,,E,]2!ped-up!!ped! [G,CE]2 [G,CE]G,,-!ped-up! | %18
!ped! [G,,E,]2!ped-up!!ped! [^F,A,C]2 [A,CD]G,,-!ped-up! | %19
!ped! [G,,E,]2!ped-up!!ped! [F,B,D]2 [G,,,G,,]C,,-!ped-up! | %20
!ped! [C,,G,,E,]2 [E,G,C]2 [C,,C,]2!ped-up! || %21
[K:F]!8vb(!!ped! F,,,2!8vb)! [A,CF]2 [A,CF]2!ped-up! |!ped! C,,2 [A,CF]2 [A,CF]2!ped-up! | %23
!ped! ^F,,2 [^F,A,CD]2 [F,A,CD]2!ped-up! |!ped! D,,2 [D,^F,A,C]2 [D,F,A,C]G,,-!ped-up! | %25
!ped! [G,,D,B,]2 [G,B,D]2 [G,B,D]2!ped-up! |!ped! [C,,C,]2 [E,G,B,C]2 [E,G,B,C]2!ped-up! | %27
!ped! F,,2 [F,A,C]2!ped-up!!ped! [B,,F,_A,]2!ped-up! |!ped! [C,A,]2 C,,2 C,F,,-!ped-up! | %29
!ped! [F,,C,A,]2 [A,CF]2 [A,CF]2!ped-up! |!ped! [A,,A,]2 [A,CE]2 [A,CE]2!ped-up! | %31
!ped! [B,,B,]2 [F,B,D]2 [F,B,D]2!ped-up! |!ped! [A,,A,]2 [E,G,^C]2 [E,G,C]2!ped-up! | %33
!ped! [B,,B,]2!ped-up!!ped! [=B,,_A,]3 C,-!ped-up! | %34
!ped! [C,A,]2!ped-up!!ped! D,2 [D,,D,]G,,-!ped-up! | %35
!ped! [G,,D,F,]2 [D,F,G,]2!ped-up!!ped! [=C,,=C,]2!ped-up! |!ped! [F,,C,F,]2 [F,,C,]2 A,2!ped-up! | %37
!ped! [_D,,_D,]2 [F,B,_D]2 [F,B,D]2!ped-up! |!ped! [B,,,_D,]2 [F,B,_D]2 [F,B,D]2!ped-up! | %39
!ped! [A,,,A,,]2 [F,A,C]2 [F,A,C]2!ped-up! |!ped! [C,,C,]2 [F,A,C]2 [F,A,C]B,,,-!ped-up! | %41
!ped! [B,,,F,,_D,]2 [F,B,_D]2 [B,,,B,,]2!ped-up! |!ped! [_D,,_D,]2 [F,B,_D]2 [B,,,B,,]2!ped-up! | %43
!ped! [A,,,A,,]2 [A,,F,]2 [_A,,F,]2!ped-up! |!ped! [G,,E,]2 [C,,C,]2 [E,G,B,C]2!ped-up! | %45
!8vb(!!ped! F,,,2!8vb)! [A,CF]2 [A,CF]2!ped-up! |!8vb(!!ped! A,,,2!8vb)! [A,CE]2 [A,CE]2!ped-up! | %47
!ped! B,,,2 [F,B,D]2 [F,B,D]2!ped-up! |!ped! =B,,,2 [F,_A,_CD]2 [F,A,CD]2!ped-up! | %49
!ped! C,,2 [F,A,C]2 [A,CF]2!ped-up! |!ped! [C,E,B,]2 [C,,C,]2 [C,G,]2!ped-up! | %51
!ped! C,2!ped-up!!ped! !>!D,2 B,,D,!ped-up! |!ped! C,2!8vb(! F,,,3!8vb)! B,,,-!ped-up! || %53
!ped! [B,,,_D,]2 [F,B,_D]2 [F,B,D]2!ped-up! |!ped! B,,,2 [F,B,_D]2 [F,B,D]2!ped-up! | %55
!8vb(!!ped! F,,,2!8vb)! [A,CF]2 C2!ped-up! |!ped! C,,2 [A,CF]2 [A,CF]2!ped-up! | %57
!ped! G,,2 [B,E]2 [G,B,CE]2!ped-up! |!ped! C,,2 [G,B,CE]2 [G,B,CE]F,,-!ped-up! | %59
!ped! [F,,C,A,]2 [A,CF]2!ped-up!!ped! [B,DF]2!ped-up! | %60
!ped! [A,CF]2!8vb(! F,,,2!8vb)! [F,A,C_E]B,,,-!ped-up! | %61
!ped! [B,,,F,,_D,]2 [F,B,_D]2 [F,B,D]2!ped-up! | %62
!8vb(!!ped! F,,,2!8vb)! [F,B,_D]2 [F,B,D]2!ped-up! | %63
!ped! [F,,C,F,]2 [C,F,A,]2 [_E,,_E,]D,,-!ped-up! |!ped! [D,,A,,^F,]2 [D,F,A,C]3 G,,-!ped-up! | %65
!ped! [G,,D,B,]2 [G,B,D]2 [G,B,D]2!ped-up! |!ped! [G,,E,]2 [G,B,CE]2 [G,B,CE]2!ped-up! | %67
!ped! [F,,C,A,]2 [A,CF]2!ped-up!!ped! [B,DF]2!ped-up! | %68
!ped! [A,CF]2 F,,2!8vb(! F,,,!8vb)!B,,,-!ped-up! | %69
!ped! [B,,,F,,_D,]2 [F,B,_D]2 [F,B,D]_D,,-!ped-up! |!ped! [D,,_D,]2 [F,B,_D]2 [F,B,D]2!ped-up! | %71
!ped! [C,,C,]2 [F,A,C]2 [A,CF]2!ped-up! |!ped! [F,,C,A,]2 [F,A,C]2 [^F,,^D,]2!ped-up! | %73
!ped! [G,,E,]2 [E,G,B,C]2 [E,G,B,C]2!ped-up! |!ped! C,,2 [E,G,B,C]2 C,,2!ped-up! | %75
!ped! [F,,F,]2 [C,F,A,]2 [F,A,C]2 | [A,CF]2 [CFA]2 [FAc]2!ped-up! | %77
 .[B,,,F,,_D,]2 .[F,B,_D]2 .[F,B,D]2 |!ped! [B,,,F,,_D,]2 [F,B,_D]2 [F,B,D]2!ped-up! | %79
!ped! [F,,C,F,]2 [A,CF]2 [A,CF]2!ped-up! |!ped! [D,,D,]2 [D,^F,A,C]2 [D,F,A,C]G,,-!ped-up! | %81
!ped! [G,,D,B,]2 [G,B,D]2 [G,B,D]C,,-!ped-up! |!ped! [C,,G,,E,]2 [G,B,CE]2 [G,B,CE]F,,-!ped-up! | %83
!ped! [F,,C,A,]2 [F,B,D]2!ped-up!!ped! [B,DF]2!ped-up! |!ped! [A,CF]2 F,,2 F,,,2!ped-up! || %85
!ped! [B,,,B,,]2 [F,B,D]2 [B,DF]2!ped-up! |!ped! [=B,,_A,]2 [B,,A,]2 [F,A,=B,D]2!ped-up! | %87
!ped! [B,,F,B,]2 [C,A,]2!ped-up!!ped! [D,F,B,]2!ped-up! | %88
!ped! [C,F,A,]2 [F,,C,F,]2 [^F,,^D,]2!ped-up! |!ped! [G,,D,]2 [D,G,B,]2 [G,B,D]C,,-!ped-up! | %90
!ped! [C,,G,,E,]2 [C,E,G,]2 [C,,C,]2!ped-up! | %91
!ped! [F,,C,F,]2 [C,F,A,]2!ped-up!!ped! [D,F,B,]2!ped-up! |!ped! [C,F,A,]4 [F,,F,]2!ped-up! | %93
!ped! [B,,,B,,]2 [F,B,]2 [B,,,B,,][=B,,,=B,,]!ped-up! |!ped! [C,,C,]2 [C,E,B,]2 [C,,C,]2!ped-up! | %95
!ped! [F,,C,F,]2 [F,A,C]2!ped-up!!ped! [F,B,D]2!ped-up! |!ped! [F,A,C]2 F,2 D,G,,-!ped-up! | %97
!ped! [G,,D,=B,]2 [D,G,B,]2 [G,,,G,,]C,,-!ped-up! |!ped! [C,,G,,E,]2 [C,E,G,]2 [C,,C,]2!ped-up! | %99
!ped! [F,,C,F,]!ped-up!!ped! [B,,F,_A,]3 [B,,F,A,]2!ped-up! | %100
!ped! [F,,C,F,]2 F,,,2 A,,,2!ped-up! ||[K:Ab]!ped! B,,,2 [F,B,D]2 [F,B,D]2!ped-up! | %102
!ped! E,,2 [E,G,D]2 [E,G,D]2!ped-up! |!ped! A,,,2 [E,A,C]2 B,,,=B,,,!ped-up! | %104
!ped! C,,2 [E,A,C]2 A,,,2!ped-up! |!8vb(!!ped! E,,,2!8vb)! [E,G,B,]2 [E,G,D]2!ped-up! | %106
!ped! [E,G,D]2 [E,G,B,]2 [E,G,B,]2!ped-up! |!ped! [A,,E,A,]2 [E,A,C]2 [E,A,C]2!ped-up! | %108
!ped! [A,,E,A,]2 [E,A,C]2 A,,,2!ped-up! |!ped! D,,2 [_F,A,D]2 [F,A,D]2!ped-up! | %110
!ped! [_G,,,_G,,]2 [_G,B,D]2 [G,B,D]2!ped-up! |!ped! [_C,,_C,]2 [_G,_CE]2 [G,CE]2!ped-up! | %112
!ped! [A,,,A,,]2 [A,_CE]2 [A,CE]2!ped-up! |!ped! [B,,,B,,]2 [G,B,E]2 [G,B,E]2!ped-up! | %114
!ped! [B,,,B,,]2 [F,A,B,=D]2 [F,A,B,D]2!ped-up! |!ped! [E,,B,,E,]2 [F,,C,F,]2 [^F,,^C,^F,]2 | %116
 [G,,D,G,]2 [E,,B,,E,]G,- [E,G,B,D]2!ped-up! |!ped! A,,,2 [E,A,C]2 [E,A,C]2!ped-up! | %118
!ped! [F,,,F,,]2 [F,=A,CE]2 [F,A,CE]B,,,-!ped-up! |!ped! [B,,,D,]2 [D,F,B,]2 [C,,C,]2!ped-up! | %120
!ped! [D,,D,]2 [D,F,B,]2 [D,,D,][=D,,=D,]!ped-up! |!ped! [E,,E,]2 [E,G,B,D]2 [E,G,B,D]2!ped-up! | %122
!8vb(!!ped! E,,,2!8vb)! [E,G,B,D]2 [E,G,B,D]2!ped-up! | %123
!ped! [A,,,A,,]2 [E,A,C]2!ped-up!!ped! [F,A,D]2!ped-up! | %124
!ped! [C,E,A,C]2!ped-up!!ped! [_C,__E,A,_C]2!ped-up!!ped! [B,,D,G,B,]A,,-!ped-up! | %125
!ped! [A,,E,C]2 [E,A,C]2 [A,,A,][_G,,_G,]!ped-up! |!ped! [F,,F,]2 [F,=A,C]2 [F,A,C]B,,,-!ped-up! | %127
!ped! [B,,,F,,D,]2 [F,B,D]2 [E,,E,]D,,-!ped-up! |!ped! [D,,F,]2 [F,B,D]2 [=D,,F,]2!ped-up! | %129
!ped! [E,,E,]2 [E,A,C]2 [C,E,A,]2!ped-up! |!ped! [E,,E,]2 [E,G,B,D]2 [E,G,B,D]2!ped-up! | %131
!ped! [A,,E,A,] [A,,E,_G,]3!ped-up!!ped! [A,,D,F,]_F,!ped-up! | %132
!ped! [A,,E,A,]2 A,,,2 [E,A,C]2!ped-up! |!ped! [A,D_F]4 [B,DF]2!ped-up! | %134
!ped! [A,D_F]2 [_F,A,D]2 [D,F,A,]2!ped-up! |!ped! [C,E,A,]2 [A,,E,A,]2 [_G,,_G,]F,,-!ped-up! | %136
!ped! [F,,C,=A,]2 [F,A,C]2!8vb(! F,,,!8vb)!B,,,-!ped-up! | %137
!ped! [B,,,F,,D,]2 [B,,D,F,]2 [D,F,B,]2!ped-up! |!8vb(!!ped! E,,,2!8vb)! [E,G,D]2 [G,DE]2!ped-up! | %139
!8vb(!!ped! A,,,2!8vb)! [A,CE]2 [CEA]2!ped-up! | %140
!8vb(!!ped! =E,,,2!8vb)! [=E,^G,=D]2 [G,=B,D=E]2!ped-up! |!ped! z2 (3E,,A,,C, (3E,A,C | x6 | %143
 z2 !>!!fermata![A,,,A,,]4!ped-up! |] %144
V:3
 x6 | x6 | x6 | x6 | x6 ||[K:C] x6 | x6 | x6 | x6 | x6 | x6 | x6 | x6 | x6 | x6 | x6 | x6 | x6 | %18
 x6 | x6 | x4 _B2 ||[K:F] x6 | x6 | x6 | x6 | x6 | x6 | x6 | x6 | x6 | x6 | x6 | x6 | x6 | x6 | %35
 x6 | x6 | x6 | x6 | x6 | x6 | x6 | x6 | x6 | x6 | x6 | x6 | x6 | x6 | x6 | x6 | x6 | x6 || x6 | %54
 x6 | x6 | x6 | x6 | x6 | x6 | x6 | x6 | x6 | x6 | x6 | x6 | x6 | x6 | x6 | x6 | x6 | x6 | x6 | %73
 x6 | x6 | x6 | x6 | x6 | x6 | x6 | x6 | x6 | x6 | x6 | x6 || x6 | x6 | x6 | x6 | x6 | x6 | x6 | %92
 x6 | x6 | x6 | x6 | x6 | x6 | x6 | x6 | x6 ||[K:Ab] x6 | x6 | x6 | x6 | x6 | x6 | x6 | x6 | x6 | %110
 x6 | x6 | x6 | x6 | x6 | x6 | x6 | x6 | x6 | x6 | x6 | x6 | x6 | x6 | x6 | x6 | x6 | x6 | x6 | %129
 x6 | x6 | x6 | x6 | x6 | x6 | x6 | x6 | x6 | x6 | x6 | x6 | x6 | x2!8va(! x2!8va)!!8va(! x2 | %143
 x6!8va)! |] %144
V:4
 x6 | x6 | x6 | x6 | x6 ||[K:C] x6 |!8vb(! x2!8vb)! x4 | x6 |!8vb(! x2!8vb)! x4 | x6 | x6 | x6 | %12
 x6 | x6 | x6 | x6 | x6 | x6 | x6 | x6 | x6 ||[K:F]!8vb(! x2!8vb)! x4 | x6 | x6 | x6 | x6 | x6 | %27
 x6 | x6 | x6 | x6 | x6 | x6 | x6 | x6 | x6 | x6 | x6 | x6 | x6 | x6 | x6 | x6 | x6 | x6 | %45
!8vb(! x2!8vb)! x4 |!8vb(! x2!8vb)! x4 | x6 | x6 | x6 | x6 | x6 | x2!8vb(! x3!8vb)! x || x6 | x6 | %55
!8vb(! x2!8vb)! x4 | x6 | x6 | x6 | x6 | x2!8vb(! x2!8vb)! x2 | x6 |!8vb(! x2!8vb)! x4 | x6 | x6 | %65
 x6 | x6 | x6 | x4!8vb(! x!8vb)! x | x6 | x6 | x6 | x6 | x6 | x6 | x6 | x6 | x6 | x6 | x6 | x6 | %81
 x6 | x6 | x6 | x6 || x6 | x6 | x6 | x6 | x6 | x6 | x6 | x6 | x6 | x6 | x6 | x6 | x6 | x6 | x6 | %100
 x6 ||[K:Ab] x6 | x6 | x6 | x6 |!8vb(! x2!8vb)! x4 | x6 | x6 | x6 | x6 | x6 | x6 | x6 | x6 | x6 | %115
 x6 | x6 | x6 | x6 | x6 | x6 | x6 |!8vb(! x2!8vb)! x4 | x6 | x6 | x6 | x6 | x6 | x6 | x6 | x6 | %131
 x6 | x6 | x6 | x6 | x6 | x4!8vb(! x!8vb)! x | x6 |!8vb(! x2!8vb)! x4 |!8vb(! x2!8vb)! x4 | %140
!8vb(! x2!8vb)! x4 | A,,,6- | A,,,6 | x6 |] %144
V:5
 x6 | x6 | x6 | x6 | x6 ||[K:C] x6 |!8vb(! x2!8vb)! x4 | x6 |!8vb(! x2!8vb)! x4 | x6 | x6 | x6 | %12
 x6 | x6 | x6 | x6 | x6 | x6 | x6 | x6 | x6 ||[K:F]!8vb(! x2!8vb)! x4 | x6 | x6 | x6 | x6 | x6 | %27
 x6 | x6 | x6 | x6 | x6 | x6 | x6 | x6 | x6 | x6 | x6 | x6 | x6 | x6 | x6 | x6 | x6 | x6 | %45
!8vb(! x2!8vb)! x4 |!8vb(! x2!8vb)! x4 | x6 | x6 | x6 | x6 | x6 | x2!8vb(! x3!8vb)! x || x6 | x6 | %55
!8vb(! x2!8vb)! x4 | x6 | x6 | x6 | x6 | x2!8vb(! x2!8vb)! x2 | x6 |!8vb(! x2!8vb)! x4 | x6 | x6 | %65
 x6 | x6 | x6 | x4!8vb(! x!8vb)! x | x6 | x6 | x6 | x6 | x6 | x6 | x6 | x6 | x6 | x6 | x6 | x6 | %81
 x6 | x6 | x6 | x6 || x6 | x6 | x6 | x6 | x6 | x6 | x6 | x6 | x6 | x6 | x6 | x6 | x6 | x6 | x6 | %100
 x6 ||[K:Ab] x6 | x6 | x6 | x6 |!8vb(! x2!8vb)! x4 | x6 | x6 | x6 | x6 | x6 | x6 | x6 | x6 | x6 | %115
 x6 | x6 | x6 | x6 | x6 | x6 | x6 |!8vb(! x2!8vb)! x4 | x6 | x6 | x6 | x6 | x6 | x6 | x6 | x6 | %131
 x6 | x6 | x6 | x6 | x6 | x4!8vb(! x!8vb)! x | x6 |!8vb(! x2!8vb)! x4 |!8vb(! x2!8vb)! x4 | %140
!8vb(! x2!8vb)! x4 | x2 (3C,E,A, (3CEA | x6 | x6 |] %144
V:6
 x6 | x6 | x6 | x6 | x6 ||[K:C] x6 | x6 | x6 | x6 | x6 | x6 | x6 | x6 | x6 | x6 | x6 | x6 | x6 | %18
 x6 | x6 | x6 ||[K:F] x6 | x6 | x6 | x6 | x6 | x6 | x6 | x6 | x6 | x6 | x6 | x6 | x6 | x6 | x6 | %36
 x6 | x6 | x6 | x6 | x6 | x6 | x6 | x6 | x6 | x6 | x6 | x6 | x6 | x6 | x6 | x6 | x6 || x6 | x6 | %55
 x6 | x6 | x6 | x6 | x6 | x6 | x6 | x6 | x6 | x6 | x6 | x6 | x6 | x6 | x6 | x6 | x6 | x6 | x6 | %74
 x6 | x6 | x6 | x6 | x6 | x6 | x6 | x6 | x6 | x6 | x6 || x6 | x6 | x6 | x6 | x6 | x6 | x6 | x6 | %93
 x6 | x6 | x6 | x6 | x6 | x6 | x6 | x6 ||[K:Ab] x6 | x6 | x6 | x6 | x6 | x6 | x6 | x6 | x6 | x6 | %111
 x6 | x6 | x6 | x6 | x6 | x6 | x6 | x6 | x6 | x6 | x6 | x6 | x6 | x6 | x6 | x6 | x6 | x6 | x6 | %130
 x6 | x6 | x6 | x6 | x6 | x6 | x6 | x6 | x6 | x6 | x6 | x6 | %142
 (3EAc!8va(! e2!8va)!!8va(! (3:2:2z2 c'' | !>!!fermata!e''6!8va)! |] %144

